X: 91
T:Tatter Jack 
R:Jig
E:10
M:6/8
L:1/8
Q:3/8=120
K:Dmix
de|~f3 ded|cAB c2d|cAF GFG|Ad^c d2e|
fef ded|cAB c2d|cAF GFG|Ad^c d2:|
A|dfa afd|dfa afd|ceg gfg|ceg gag|
fef ded|cAB c2d|cAF GFG|Ad^c d2:|
